!!!COM: Charles Gounod
!!!CNT: Francais
!!!TXO: Francais
!!!OTL: Aubade
!!!LYR: Victor Hugo
!!!ENC: Jacob Pegg
!!!YOR: Romantic French Song 1830-1870 -David Tunley, ed.,
!!!YOR: New York: Garland Publishing, Inc., 1995, Vol. 5
!!!ODT: 1855/
!!NB: Vocal melody and text only encoded.
!!NB: First instance of melodic material only encoded.
**kern	**silbe
*clef G2	*
*k[b-]	*
*M3/4	*
*MM[moderato]	*
!!created: 6/17/03 0:06
!!proofed and posted: 7/21/03 23:26
=6	=6
{8f	{L'au-
8g	-be
2a	nai^t
=7	=7
(4g	et
8a)	|
8b-	ta
8cc	por-
8dd	-te est
=8	=8
(16a	clo-
16g	|
16f	|
16g)	|
[2a	-se!
=9	=9
8a]}	|}
8r	.
4r	.
4r	.
=10	=10
{(8a	{Ma
8b-)	|
4cc	bel-
[4ff	-le,
=11	=11
4ff]	|
8ee	pour-
8dd	-quoi
8g	som-
8dd	-meil-
=12	=12
(16cc	-ler?
16dd	|
16ee	|
16dd)	|
[2cc	|
=13	=13
4cc_	|
8cc]}	|}
8r	.
4r	.
=14	=14
8r	.
{8f	{A
8g	l'heure
8a	ou\
(8b-	s'e/-
16b-q	|
16ddq	|
8cc)	-veil-
=15	=15
8b-	-le
8g	la
(2ee-	ro-
=16	=16
16dd	|
16cc	|
16b-	|
16cc)	|
[2dd	-se
=17	=17
8dd]}	|}
8r	.
4r	.
4r	.
=18	=18
8r	.
{8ff	{Ne
8een	vas~
8dd	~tu
8cc	pas
8b-	te
=19	=19
(16aq	|
16b-q	|
8a)	re/-
8g	-veil-
[2a	-ler?
=20	=20
4a_	|
8a]}	|}
8r	.
4r	.
=21	=21
2.r	.
=22	=22
8r	.
{8a	{O
8f#	ma
8a	char-
8dd	-man-
8ee	-te, e/-
=23	=23
8dd	-cou-
8cc#	-te i-
[2a	-ci
=24	=24
4a_	|
8a]}	|}
8r	.
4r	.
=25	=25
2.r	.
=26	=26
8r	.
{8a	{L'a-
8f	-mant
8a	qui
8dd	chan-
8ee	-te et
=27	=27
8dd	pleure
8cc	aus-
2b-}	-si!}
=28	=28
8r	.
{8a	{L'a-
8dd	-mant
8a	qui
8b-	chante
8a	et
=29	=29
(16aq	|
16ccq	|
8b-)	pleu-
8a	-re au-
[2a	-ssi!
=30	=30
2.a_	|
=31	=31
4a_	|
8a]}	|}
8r	.
4r	.
*-	*-
